X: 1579
T: Jackson Knox's Schottische No 3
B: australian traditional tunes wiki
M:4/4
L:1/8
R: Schottische
Q: 1/4=100
K:D
V:1 
(3ABc |"D"d>A d>e f<d AF|"G"G>B B>B B2(3BcB|"A"A<c c>c c2B2|"D"A<d d>dd2 (3ABA|
F<A d>e f<d A>F|"G"G>B B>B B2 (3BcB|"A"A<c c>c c2B2|"D"A<d d>d d2e2||
"D"(3faf d>fa2f2|"A7"a2g>f g3f|e2c2B2A2|(3afa (3geg  "D"f2 (3BcB|
"D"A>d d>e (3faf d>f|"A7"a2 g>f g3f|e2c2B2A>f|(3afa (3gec "D"d2z2||
% abcbook-tune_id 6342d53acc67fcd7bfc79183


% abcbook-boost 0
% abcbook-tablature 
% abcbook-transpose 
% abcbook-lastupdated 1665324372225
% abcbook-soundfonts 
% abcbook-repeats 1
% NFF Book 2007

